X:1
T:Title
%%score { 1 | ( 2 3 ) }
L:1/8
Q:1/4=95
M:6/8
K:Eb
V:1 treble nm="Grand Piano"
V:2 bass 
V:3 bass 
V:1
 [GB][Ac][GB] [Ge]2 [EG] | [DB]2 [FA] G2 B | c2 B A2 G | [EG]3 .[DF]3 | [GB][Ac][GB] [Ge]2 [EG] | %5
w: J.~H.~Tenney * * * *|||||
 [EA]2 [EB] [Ec]2 [Ec] | [EB]2 [EG] [DF]2 [DB] | E6 | EGB e2 [EBd] | [EBd]2 c c2 c | %10
w: |||||
 Bc[DAB] .[DAB]2 [DAB] | [EGB]3 .[B,EG]3 | EGB e2 [EBd] | [EBd]2 c c2 c | B2 [Ge] e2 [Fd] | %15
w: |||||
 [Ge]6 |] %16
w: |
V:2
 [E,E][E,E][E,E] [E,B,]2 [E,B,] | [B,,B,]2 [D,B,] [E,B,E]2 [G,B,E] | %2
 [A,E]2 [G,B,E] [F,B,D]2 [E,B,E] | [B,,B,]6 | [E,E][E,E][E,E] [E,B,]2 [_D,B,] | %5
 [C,A,]2 [B,,G,] [A,,A,]2 [A,,A,] | [B,,G,]2 [B,,B,] [B,,A,]2 [B,,A,] | [E,G,]6 | E,G,B, E2 G, | %9
 A,2[K:treble] [A,EA] [A,EA]2 [A,EA] | [B,DA]2 B,[K:bass] z cB,, | E,3 .E,3 | E,G,B, E2 G, | %13
 A,2[K:treble] [A,EA] [A,EA]2 [A,EA] | [G,E]2 [E,B,] [B,G]2 [B,,B,] | [E,B,]6 |] %16
V:3
 x6 | x6 | x6 | x6 | x6 | x6 | x6 | x6 | x6 | x2[K:treble] x4 | z3[K:bass] .B,,3 | x6 | x6 | %13
 x2[K:treble] x4 | x6 | x6 |] %16

